usr/share/icons/big-icons/symbolic/status/network-cellular-disabled-symbolic.svg

<svg width="16" height="16.001" version="1.1" xmlns="http://www.w3.org/2000/svg">
 <path d="m12 2v7.8789l1 1v-7.8789h1v8.8789l1 1v-10.879h-3zm-4 3v0.87891l1 1v-0.87891h1v1.8789l1 1v-3.8789h-3zm-4 3v6h3v-4.8789l-1.1211-1.1211h-1.8789zm1 1h1v4h-1v-4zm3 1.1211v3.8789h3v-0.87891l-1-1v0.87891h-1v-1.8789l-1-1zm-8 0.87891v3h3v-3h-3zm1 1h1v1h-1v-1z" fill="#363636"/>
 <rect transform="rotate(45)" x="1.3137" y="-.5" width="20" height="1" rx="0" ry="0" fill="#363636" stroke-linecap="round" stroke-linejoin="round" stroke-width=".48307" style="paint-order:markers stroke fill"/>
 <g transform="rotate(45)">
  <path d="m1.3137-0.5h20v1h-20z" color="#000000" fill="#363636" stroke-linecap="round" stroke-linejoin="round" stroke-width="2" style="-inkscape-stroke:none;paint-order:markers stroke fill"/>
 </g>
</svg>

<svg xmlns="http://www.w3.org/2000/svg" width="16" height="16.001">
<path fill="#fcfcfc" d="M12 2v7.879l1 1V3h1v8.879l1 1V1.999zM8 5v.879l1 1V6h1v1.879l1 1V5zM4 8v6h3V9.121L5.879 8zm1 1h1v4H5zm3 1.121V14h3v-.879l-1-1V13H9v-1.879zM0 11v3h3v-3zm1 1h1v1H1z"/>
<rect width="20" height="1" x="1.314" y="-.5" fill="#fcfcfc" rx="0" ry="0" style="paint-order:markers stroke fill" transform="rotate(45)"/>
<path fill="#fcfcfc" d="M1.314-.5h20v1h-20z" color="#000" style="-inkscape-stroke:none;paint-order:markers stroke fill" transform="rotate(45)"/>
</svg>
